ix/moneys_outline.svg

<svg viewBox="0 0 24 24" fill="none" xmlns="http://www.w3.org/2000/svg" height="1em" width="1em">
  <path d="M14.8892 18.2197H6.09921C5.57921 18.2197 5.0892 18.1698 4.6492 18.0698C4.4192 18.0398 4.13921 17.9597 3.84921 17.8497C2.51921 17.3497 0.949219 16.1198 0.949219 13.0598V7.90973C0.949219 4.63973 2.82921 2.75977 6.09921 2.75977H14.8892C17.6492 2.75977 19.4292 4.07974 19.9092 6.47974C19.9992 6.91974 20.0392 7.38973 20.0392 7.90973V13.0598C20.0392 16.3498 18.1692 18.2197 14.8892 18.2197ZM6.10919 4.27979C3.64919 4.27979 2.4592 5.46975 2.4592 7.92975V13.0798C2.4592 14.8698 3.08921 15.9698 4.37921 16.4598C4.57921 16.5298 4.76922 16.5797 4.94922 16.6097C5.32922 16.6897 5.69919 16.7297 6.10919 16.7297H14.8992C17.3592 16.7297 18.5492 15.5398 18.5492 13.0798V7.92975C18.5492 7.50975 18.5192 7.13974 18.4492 6.79974C18.1092 5.09974 16.9492 4.27979 14.8992 4.27979H6.10919Z" fill="#292D32"/>
  <path d="M17.8911 21.2198H9.10107C8.25107 21.2198 7.49106 21.0998 6.84106 20.8498C5.37106 20.2998 4.41105 19.1398 4.08105 17.4798C4.03105 17.2298 4.11107 16.9698 4.29107 16.7998C4.47107 16.6198 4.73107 16.5498 4.98107 16.6098C5.31107 16.6798 5.68107 16.7198 6.10107 16.7198H14.8911C17.3511 16.7198 18.5411 15.5299 18.5411 13.0699V7.91984C18.5411 7.49984 18.5111 7.12984 18.4411 6.78984C18.3911 6.53984 18.4711 6.28985 18.6411 6.10985C18.8211 5.92985 19.0711 5.84983 19.3211 5.90983C21.7211 6.39983 23.0411 8.17984 23.0411 10.9198V16.0699C23.0411 19.3499 21.1711 21.2198 17.8911 21.2198ZM5.92107 18.2198C6.24107 18.7998 6.72107 19.2099 7.38107 19.4499C7.86107 19.6299 8.44105 19.7198 9.11105 19.7198H17.9011C20.3611 19.7198 21.551 18.5299 21.551 16.0699V10.9198C21.551 9.33984 21.061 8.28985 20.051 7.73985C20.051 7.79985 20.051 7.85984 20.051 7.91984V13.0699C20.051 16.3399 18.1711 18.2198 14.9011 18.2198H6.11105C6.04105 18.2198 5.98107 18.2198 5.92107 18.2198Z" fill="#292D32"/>
  <path d="M10.4994 13.8899C8.62939 13.8899 7.10938 12.3699 7.10938 10.4999C7.10938 8.62988 8.62939 7.10986 10.4994 7.10986C12.3694 7.10986 13.8894 8.62988 13.8894 10.4999C13.8894 12.3699 12.3694 13.8899 10.4994 13.8899ZM10.4994 8.60986C9.45939 8.60986 8.60938 9.45988 8.60938 10.4999C8.60938 11.5399 9.45939 12.3899 10.4994 12.3899C11.5394 12.3899 12.3894 11.5399 12.3894 10.4999C12.3894 9.45988 11.5394 8.60986 10.4994 8.60986Z" fill="#292D32"/>
  <path d="M4.78125 13.4498C4.37125 13.4498 4.03125 13.1098 4.03125 12.6998V8.2998C4.03125 7.8898 4.37125 7.5498 4.78125 7.5498C5.19125 7.5498 5.53125 7.8898 5.53125 8.2998V12.6998C5.53125 13.1098 5.20125 13.4498 4.78125 13.4498Z" fill="#292D32"/>
  <path d="M16.2109 13.4498C15.8009 13.4498 15.4609 13.1098 15.4609 12.6998V8.2998C15.4609 7.8898 15.8009 7.5498 16.2109 7.5498C16.6209 7.5498 16.9609 7.8898 16.9609 8.2998V12.6998C16.9609 13.1098 16.6309 13.4498 16.2109 13.4498Z" fill="#292D32"/>
</svg>

<svg viewBox="0 0 24 24" fill="none" xmlns="http://www.w3.org/2000/svg" height="1em" width="1em">
  <path d="M14.89 18.22H6.1c-.52 0-1.01-.05-1.45-.15a3.74 3.74 0 0 1-.8-.22c-1.33-.5-2.9-1.73-2.9-4.79V7.91c0-3.27 1.88-5.15 5.15-5.15h8.79c2.76 0 4.54 1.32 5.02 3.72.09.44.13.91.13 1.43v5.15c0 3.29-1.87 5.16-5.15 5.16ZM6.11 4.28c-2.46 0-3.65 1.19-3.65 3.65v5.15c0 1.79.63 2.89 1.92 3.38.2.07.39.12.57.15.38.08.75.12 1.16.12h8.79c2.46 0 3.65-1.19 3.65-3.65V7.93c0-.42-.03-.79-.1-1.13-.34-1.7-1.5-2.52-3.55-2.52H6.11Z" fill="#292D32"/>
  <path d="M17.891 21.22h-8.79c-.85 0-1.61-.12-2.26-.37-1.47-.55-2.43-1.71-2.76-3.37a.74.74 0 0 1 .21-.68.73.73 0 0 1 .69-.19c.33.07.7.11 1.12.11h8.79c2.46 0 3.65-1.19 3.65-3.65V7.92c0-.42-.03-.79-.1-1.13-.05-.25.03-.5.2-.68.18-.18.43-.26.68-.2 2.4.49 3.72 2.27 3.72 5.01v5.15c0 3.28-1.87 5.15-5.15 5.15Zm-11.97-3c.32.58.8.99 1.46 1.23.48.18 1.06.27 1.73.27h8.79c2.46 0 3.65-1.19 3.65-3.65v-5.15c0-1.58-.49-2.63-1.5-3.18v5.33c0 3.27-1.88 5.15-5.15 5.15h-8.98Z" fill="#292D32"/>
  <path d="M10.5 13.89c-1.87 0-3.39-1.52-3.39-3.39s1.52-3.39 3.39-3.39 3.39 1.52 3.39 3.39-1.52 3.39-3.39 3.39Zm0-5.28c-1.04 0-1.89.85-1.89 1.89s.85 1.89 1.89 1.89 1.89-.85 1.89-1.89-.85-1.89-1.89-1.89Zm-5.719 4.84c-.41 0-.75-.34-.75-.75V8.3c0-.41.34-.75.75-.75s.75.34.75.75v4.4c0 .41-.33.75-.75.75Zm11.429 0c-.41 0-.75-.34-.75-.75V8.3c0-.41.34-.75.75-.75s.75.34.75.75v4.4c0 .41-.33.75-.75.75Z" fill="#292D32"/>
</svg>
